Dominus_Dark_Funeral/22/apps/upsource.svg

<svg xmlns="http://www.w3.org/2000/svg" width="24" height="24" version="1"><defs><linearGradient id="a"><stop offset="0" stop-color="#040000"/><stop offset="1" stop-opacity="0"/></linearGradient></defs><path d="M1 1v22h22V1H1zm5.44 2.4l1.84 1.86-.8.84v7.18l.52.53 1.24-1.26V6.1l-.82-.84 1.84-1.85 1.84 1.85-.8.84v7.48l1.44 1.56-1.44 1.43-1.6-1.55-1.58 1.57-2.7-2.7v-7.8l-.83-.83 1.85-1.85zm7.91.04h2.74l2.32 2.3V7.8l-3.75 3.74v2.35l.81.84-1.85 1.85-1.82-1.85.82-.84V5.94l-.9-.87 1.63-1.63zm1.2 1.5v4.02l2.04-2.02-2.04-2zM7.1 17.45h9.78v1.9H7.11v-1.9z" fill="#e6e6e6"/></svg>

<?xml version="1.0" encoding="UTF-8" standalone="no"?>
<svg
   xmlns:dc="http://purl.org/dc/elements/1.1/"
   xmlns:cc="http://creativecommons.org/ns#"
   xmlns:rdf="http://www.w3.org/1999/02/22-rdf-syntax-ns#"
   xmlns:svg="http://www.w3.org/2000/svg"
   xmlns="http://www.w3.org/2000/svg"
   xmlns:sodipodi="http://sodipodi.sourceforge.net/DTD/sodipodi-0.dtd"
   xmlns:inkscape="http://www.inkscape.org/namespaces/inkscape"
   width="24"
   height="24"
   version="1"
   id="svg11"
   sodipodi:docname="upsource.svg"
   inkscape:version="0.92.4 (5da689c313, 2019-01-14)">
  <metadata
     id="metadata15">
    <rdf:RDF>
      <cc:Work
         rdf:about="">
        <dc:format>image/svg+xml</dc:format>
        <dc:type
           rdf:resource="http://purl.org/dc/dcmitype/StillImage" />
        <dc:title></dc:title>
      </cc:Work>
    </rdf:RDF>
  </metadata>
  <sodipodi:namedview
     pagecolor="#ffffff"
     bordercolor="#666666"
     borderopacity="1"
     objecttolerance="10"
     gridtolerance="10"
     guidetolerance="10"
     inkscape:pageopacity="0"
     inkscape:pageshadow="2"
     inkscape:window-width="1138"
     inkscape:window-height="480"
     id="namedview13"
     showgrid="false"
     inkscape:zoom="9.8333333"
     inkscape:cx="1.0677966"
     inkscape:cy="12"
     inkscape:window-x="0"
     inkscape:window-y="25"
     inkscape:window-maximized="0"
     inkscape:current-layer="svg11" />
  <defs
     id="defs7">
    <linearGradient
       id="a">
      <stop
         offset="0"
         stop-color="#040000"
         id="stop2" />
      <stop
         offset="1"
         stop-opacity="0"
         id="stop4" />
    </linearGradient>
  </defs>
  <path
     d="M 1,1 V 23 H 23 V 1 Z M 6.44,3.4 8.28,5.26 7.48,6.1 v 7.18 L 8,13.81 9.24,12.55 V 6.1 L 8.42,5.26 10.26,3.41 12.1,5.26 11.3,6.1 v 7.48 l 1.44,1.56 -1.44,1.43 -1.6,-1.55 -1.58,1.57 -2.7,-2.7 V 6.09 L 4.59,5.26 6.44,3.41 Z m 7.91,0.04 h 2.74 l 2.32,2.3 V 7.8 l -3.75,3.74 v 2.35 l 0.81,0.84 -1.85,1.85 -1.82,-1.85 0.82,-0.84 V 5.94 l -0.9,-0.87 z m 1.2,1.5 V 8.96 L 17.59,6.94 Z M 7.1,17.45 h 9.78 v 1.9 H 7.11 v -1.9 z"
     id="path9"
     inkscape:connector-curvature="0"
     style="fill:#e6e6e6" />
</svg>
